X:40
T: Der Maedchenmoerder (Halewijn - Ulinger)
N: Q0041V
O: Mitteleuropa, Deutschland (BRD) , Wuerttemberg
R: Ballade, Verfuehrung, Mord, Mordversuch bzw. Rache
M: 6/8
L: 1/8
K: G
D | D2GGAB | B2ed2
B | BAAGFe | d2cB2
d | cBBBce | d2cA2
G | FAAAce | d3c3 | B2z3

@@@ Tune index: 776
